src/assets/gardensType.svg

<svg width="101" height="28" viewBox="0 0 101 28" fill="none" xmlns="http://www.w3.org/2000/svg">
<path d="M40.48 20.216C39.58 20.216 38.782 20.036 38.086 19.676C37.402 19.304 36.856 18.806 36.448 18.182C36.052 17.558 35.752 16.868 35.548 16.112C35.356 15.356 35.26 14.552 35.26 13.7C35.26 12.5 35.434 11.426 35.782 10.478C36.142 9.518 36.724 8.732 37.528 8.12C38.332 7.496 39.316 7.184 40.48 7.184C41.512 7.184 42.316 7.37 42.892 7.742C43.468 8.102 43.948 8.594 44.332 9.218L43.216 9.866C42.88 9.386 42.502 9.008 42.082 8.732C41.674 8.456 41.14 8.318 40.48 8.318C39.796 8.318 39.19 8.48 38.662 8.804C38.134 9.116 37.726 9.542 37.438 10.082C37.15 10.61 36.934 11.18 36.79 11.792C36.646 12.404 36.574 13.04 36.574 13.7C36.574 14.672 36.7 15.554 36.952 16.346C37.216 17.126 37.648 17.78 38.248 18.308C38.86 18.824 39.604 19.082 40.48 19.082C41.392 19.082 42.118 18.8 42.658 18.236C43.198 17.672 43.468 16.91 43.468 15.95V15.194H41.146V14.078H44.8V15.464C44.8 16.964 44.392 18.134 43.576 18.974C42.772 19.802 41.74 20.216 40.48 20.216ZM53.2343 20V19.1C52.4063 19.844 51.5063 20.216 50.5343 20.216C49.5743 20.216 48.8123 19.952 48.2483 19.424C47.6843 18.884 47.4023 18.11 47.4023 17.102C47.4023 16.106 47.7203 15.35 48.3563 14.834C49.0043 14.318 49.8023 14.06 50.7503 14.06C51.6023 14.06 52.4303 14.276 53.2343 14.708V13.934C53.2343 12.434 52.5623 11.684 51.2183 11.684C50.3543 11.684 49.4423 12.014 48.4823 12.674L48.1223 11.594C49.1783 10.922 50.2523 10.586 51.3443 10.586C51.7163 10.586 52.0643 10.634 52.3883 10.73C52.7123 10.814 53.0303 10.97 53.3423 11.198C53.6663 11.414 53.9243 11.744 54.1163 12.188C54.3083 12.62 54.4043 13.148 54.4043 13.772V20H53.2343ZM50.6603 19.118C51.6083 19.118 52.4663 18.644 53.2343 17.696V15.914C52.4783 15.41 51.6923 15.158 50.8763 15.158C50.2163 15.158 49.6643 15.326 49.2203 15.662C48.7883 15.986 48.5723 16.466 48.5723 17.102C48.5723 17.714 48.7523 18.206 49.1123 18.578C49.4843 18.938 50.0003 19.118 50.6603 19.118ZM57.2763 20V10.802H58.5363V12.098C59.0043 11.09 59.7783 10.586 60.8583 10.586C61.3743 10.586 61.8063 10.712 62.1543 10.964L61.9563 12.188C61.5843 11.96 61.1883 11.846 60.7683 11.846C60.2043 11.846 59.6883 12.086 59.2203 12.566C58.7643 13.034 58.5363 13.778 58.5363 14.798V20H57.2763ZM67.2997 20.216C66.1237 20.216 65.1937 19.784 64.5097 18.92C63.8377 18.044 63.5017 16.868 63.5017 15.392C63.5017 13.892 63.8377 12.716 64.5097 11.864C65.1937 11.012 66.1237 10.586 67.2997 10.586C68.2117 10.586 69.0277 10.874 69.7477 11.45V7.634L71.0077 7.004V20H69.7477V19.208C69.0757 19.88 68.2597 20.216 67.2997 20.216ZM67.4437 19.082C67.9117 19.082 68.3497 18.956 68.7577 18.704C69.1657 18.452 69.4957 18.098 69.7477 17.642V13.052C69.1957 12.164 68.4277 11.72 67.4437 11.72C66.6037 11.72 65.9557 12.038 65.4997 12.674C65.0437 13.31 64.8157 14.216 64.8157 15.392C64.8157 16.448 65.0557 17.33 65.5357 18.038C66.0157 18.734 66.6517 19.082 67.4437 19.082ZM77.6051 20.216C76.4051 20.216 75.4391 19.748 74.7071 18.812C73.9751 17.876 73.6091 16.736 73.6091 15.392C73.6091 13.892 73.9751 12.716 74.7071 11.864C75.4391 11.012 76.4051 10.586 77.6051 10.586C78.6611 10.586 79.5311 10.964 80.2151 11.72C80.8991 12.464 81.2411 13.568 81.2411 15.032C81.2411 15.356 81.2291 15.65 81.2051 15.914H74.9411C75.0491 16.874 75.3371 17.636 75.8051 18.2C76.2731 18.764 76.8911 19.046 77.6591 19.046C78.3911 19.046 79.0811 18.806 79.7291 18.326L80.4131 19.172C79.5731 19.868 78.6371 20.216 77.6051 20.216ZM74.9051 14.78H79.9631C79.9511 13.664 79.7051 12.878 79.2251 12.422C78.7571 11.954 78.2171 11.72 77.6051 11.72C76.8371 11.72 76.2071 11.978 75.7151 12.494C75.2231 13.01 74.9531 13.772 74.9051 14.78ZM89.4365 20V14.384C89.4365 13.46 89.2445 12.788 88.8605 12.368C88.4765 11.936 87.9545 11.72 87.2945 11.72C85.7825 11.72 85.0265 12.596 85.0265 14.348V20H83.7665V10.802H85.0265V11.81C85.5905 10.994 86.3825 10.586 87.4025 10.586C88.5305 10.586 89.3585 10.928 89.8865 11.612C90.4265 12.296 90.6965 13.394 90.6965 14.906V20H89.4365ZM96.4308 20.216C95.2188 20.216 94.1628 19.682 93.2628 18.614L94.1448 17.84C94.8528 18.68 95.6508 19.1 96.5388 19.1C97.0668 19.1 97.4988 18.986 97.8348 18.758C98.1708 18.518 98.3388 18.188 98.3388 17.768C98.3388 17.504 98.2788 17.27 98.1588 17.066C98.0388 16.85 97.8468 16.658 97.5828 16.49C97.3308 16.31 97.1028 16.172 96.8988 16.076C96.6948 15.98 96.4128 15.86 96.0528 15.716C95.6208 15.536 95.2668 15.374 94.9908 15.23C94.7148 15.086 94.4328 14.906 94.1448 14.69C93.8568 14.474 93.6408 14.222 93.4968 13.934C93.3648 13.634 93.2988 13.298 93.2988 12.926C93.2988 12.23 93.5748 11.666 94.1268 11.234C94.6788 10.802 95.3928 10.586 96.2688 10.586C97.4808 10.586 98.4768 11.054 99.2568 11.99L98.4288 12.692C97.7688 12.032 97.0368 11.702 96.2328 11.702C95.7048 11.702 95.2788 11.81 94.9548 12.026C94.6428 12.242 94.4868 12.536 94.4868 12.908C94.4868 13.088 94.5288 13.256 94.6128 13.412C94.6968 13.568 94.7928 13.7 94.9008 13.808C95.0088 13.904 95.1768 14.018 95.4048 14.15C95.6328 14.27 95.8128 14.36 95.9448 14.42C96.0768 14.468 96.2928 14.552 96.5928 14.672C96.9528 14.816 97.2348 14.936 97.4388 15.032C97.6428 15.116 97.8948 15.254 98.1948 15.446C98.5068 15.626 98.7408 15.812 98.8968 16.004C99.0648 16.184 99.2088 16.424 99.3288 16.724C99.4608 17.012 99.5268 17.336 99.5268 17.696C99.5268 18.464 99.2448 19.076 98.6808 19.532C98.1288 19.988 97.3788 20.216 96.4308 20.216Z" fill="#2C3437"/>
<circle cx="13.5" cy="13.5" r="13.5" fill="#FFEB6F"/>
<g filter="url(#filter0_i)">
<path d="M13.5009 26.2076C20.5186 26.2076 26.2076 20.5186 26.2076 13.5009C26.2076 6.48312 20.5186 0.794128 13.5009 0.794128C6.48312 0.794128 0.794128 6.48312 0.794128 13.5009C0.794128 20.5186 6.48312 26.2076 13.5009 26.2076Z" fill="url(#paint0_linear)"/>
<path d="M13.5009 26.2076C20.5186 26.2076 26.2076 20.5186 26.2076 13.5009C26.2076 6.48312 20.5186 0.794128 13.5009 0.794128C6.48312 0.794128 0.794128 6.48312 0.794128 13.5009C0.794128 20.5186 6.48312 26.2076 13.5009 26.2076Z" fill="url(#paint1_linear)" fill-opacity="0.2" style="mix-blend-mode:soft-light"/>
</g>
<path opacity="0.4" d="M23.4917 21.3457C19.2962 21.1851 15.9445 17.7353 15.9445 13.5008C15.9445 9.26639 19.2962 5.8166 23.4917 5.65594C25.1912 7.81714 26.2076 10.5398 26.2076 13.5008C26.2076 16.4619 25.1896 19.1845 23.4917 21.3457Z" fill="#FFEB6F"/>
<path opacity="0.2" d="M11.0894 13.5009C11.0894 8.31604 14.1959 3.86006 18.6468 1.88489C20.556 2.73212 22.2149 4.03424 23.49 5.65598C19.2944 5.81663 15.9427 9.26642 15.9427 13.5009C15.9427 17.7353 19.2944 21.1851 23.49 21.3458C22.2149 22.9675 20.556 24.2696 18.6468 25.1169C14.1959 23.14 11.0894 18.684 11.0894 13.5009Z" fill="#FFEB6F"/>
<path opacity="0.2" d="M15.9107 13.5009C15.9107 8.31604 12.8042 3.86006 8.35324 1.88489C6.44402 2.73212 4.78508 4.03424 3.51001 5.65598C7.70556 5.81663 11.0573 9.26642 11.0573 13.5009C11.0573 17.7353 7.70556 21.1851 3.51001 21.3458C4.78508 22.9675 6.44402 24.2696 8.35324 25.1169C12.8042 23.14 15.9107 18.684 15.9107 13.5009Z" fill="#FFEB6F"/>
<path opacity="0.4" d="M3.50999 21.3457C7.70555 21.1851 11.0573 17.7353 11.0573 13.5008C11.0573 9.26637 7.70555 5.81489 3.50999 5.65424C1.81046 7.81543 0.794128 10.5381 0.794128 13.5008C0.794128 16.4636 1.81046 19.1845 3.50999 21.3457Z" fill="#FFEB6F"/>
<defs>
<filter id="filter0_i" x="0.794128" y="0.794128" width="25.7576" height="25.7576" filterUnits="userSpaceOnUse" color-interpolation-filters="sRGB">
<feFlood flood-opacity="0" result="BackgroundImageFix"/>
<feBlend mode="normal" in="SourceGraphic" in2="BackgroundImageFix" result="shape"/>
<feColorMatrix in="SourceAlpha" type="matrix" values="0 0 0 0 0 0 0 0 0 0 0 0 0 0 0 0 0 0 127 0" result="hardAlpha"/>
<feOffset dx="0.3441" dy="0.3441"/>
<feGaussianBlur stdDeviation="0.17205"/>
<feComposite in2="hardAlpha" operator="arithmetic" k2="-1" k3="1"/>
<feColorMatrix type="matrix" values="0 0 0 0 1 0 0 0 0 1 0 0 0 0 1 0 0 0 0.2 0"/>
<feBlend mode="normal" in2="shape" result="effect1_innerShadow"/>
</filter>
<linearGradient id="paint0_linear" x1="13.5009" y1="0.794128" x2="13.5009" y2="26.2076" gradientUnits="userSpaceOnUse">
<stop stop-color="#FFFEEB"/>
<stop offset="1" stop-color="#FFDD11"/>
</linearGradient>
<linearGradient id="paint1_linear" x1="13.5009" y1="0.794128" x2="13.5009" y2="26.2076" gradientUnits="userSpaceOnUse">
<stop offset="0.328125" stop-color="white"/>
<stop offset="1" stop-opacity="0.1"/>
</linearGradient>
</defs>
</svg>

<svg width="101" height="28" fill="none" xmlns="http://www.w3.org/2000/svg"><path d="M40.48 20.216c-.9 0-1.698-.18-2.394-.54a4.471 4.471 0 01-1.638-1.494 7.467 7.467 0 01-.9-2.07 9.769 9.769 0 01-.288-2.412c0-1.2.174-2.274.522-3.222.36-.96.942-1.746 1.746-2.358.804-.624 1.788-.936 2.952-.936 1.032 0 1.836.186 2.412.558.576.36 1.056.852 1.44 1.476l-1.116.648a4.241 4.241 0 00-1.134-1.134c-.408-.276-.942-.414-1.602-.414-.684 0-1.29.162-1.818.486a3.215 3.215 0 00-1.224 1.278 6.81 6.81 0 00-.648 1.71 8.304 8.304 0 00-.216 1.908c0 .972.126 1.854.378 2.646.264.78.696 1.434 1.296 1.962.612.516 1.356.774 2.232.774.912 0 1.638-.282 2.178-.846.54-.564.81-1.326.81-2.286v-.756h-2.322v-1.116H44.8v1.386c0 1.5-.408 2.67-1.224 3.51-.804.828-1.836 1.242-3.096 1.242zM53.234 20v-.9c-.828.744-1.728 1.116-2.7 1.116-.96 0-1.722-.264-2.286-.792-.564-.54-.846-1.314-.846-2.322 0-.996.318-1.752.954-2.268.648-.516 1.446-.774 2.394-.774.852 0 1.68.216 2.484.648v-.774c0-1.5-.672-2.25-2.016-2.25-.864 0-1.776.33-2.736.99l-.36-1.08c1.056-.672 2.13-1.008 3.222-1.008.372 0 .72.048 1.044.144.324.084.642.24.954.468.324.216.582.546.774.99.192.432.288.96.288 1.584V20h-1.17zm-2.574-.882c.948 0 1.806-.474 2.574-1.422v-1.782c-.756-.504-1.542-.756-2.358-.756-.66 0-1.212.168-1.656.504-.432.324-.648.804-.648 1.44 0 .612.18 1.104.54 1.476.372.36.888.54 1.548.54zm6.616.882v-9.198h1.26v1.296c.468-1.008 1.242-1.512 2.322-1.512.516 0 .948.126 1.296.378l-.198 1.224a2.236 2.236 0 00-1.188-.342c-.564 0-1.08.24-1.548.72-.456.468-.684 1.212-.684 2.232V20h-1.26zm10.024.216c-1.176 0-2.106-.432-2.79-1.296-.672-.876-1.008-2.052-1.008-3.528 0-1.5.336-2.676 1.008-3.528.684-.852 1.614-1.278 2.79-1.278.912 0 1.728.288 2.448.864V7.634l1.26-.63V20h-1.26v-.792c-.672.672-1.488 1.008-2.448 1.008zm.144-1.134c.468 0 .906-.126 1.314-.378.408-.252.738-.606.99-1.062v-4.59c-.552-.888-1.32-1.332-2.304-1.332-.84 0-1.488.318-1.944.954-.456.636-.684 1.542-.684 2.718 0 1.056.24 1.938.72 2.646.48.696 1.116 1.044 1.908 1.044zm10.161 1.134c-1.2 0-2.166-.468-2.898-1.404-.732-.936-1.098-2.076-1.098-3.42 0-1.5.366-2.676 1.098-3.528.732-.852 1.698-1.278 2.898-1.278 1.056 0 1.926.378 2.61 1.134.684.744 1.026 1.848 1.026 3.312 0 .324-.012.618-.036.882h-6.264c.108.96.396 1.722.864 2.286.468.564 1.086.846 1.854.846.732 0 1.422-.24 2.07-.72l.684.846c-.84.696-1.776 1.044-2.808 1.044zm-2.7-5.436h5.058c-.012-1.116-.258-1.902-.738-2.358-.468-.468-1.008-.702-1.62-.702-.768 0-1.398.258-1.89.774s-.762 1.278-.81 2.286zM89.436 20v-5.616c0-.924-.192-1.596-.576-2.016-.383-.432-.906-.648-1.566-.648-1.511 0-2.267.876-2.267 2.628V20h-1.26v-9.198h1.26v1.008c.564-.816 1.355-1.224 2.376-1.224 1.127 0 1.956.342 2.483 1.026.54.684.81 1.782.81 3.294V20h-1.26zm6.995.216c-1.212 0-2.268-.534-3.168-1.602l.882-.774c.708.84 1.506 1.26 2.394 1.26.528 0 .96-.114 1.296-.342.336-.24.504-.57.504-.99 0-.264-.06-.498-.18-.702-.12-.216-.312-.408-.576-.576a4.513 4.513 0 00-.684-.414 16.37 16.37 0 00-.846-.36c-.432-.18-.786-.342-1.062-.486a6.193 6.193 0 01-.846-.54 2.143 2.143 0 01-.648-.756 2.477 2.477 0 01-.198-1.008c0-.696.276-1.26.828-1.692.552-.432 1.266-.648 2.142-.648 1.212 0 2.208.468 2.988 1.404l-.828.702c-.66-.66-1.392-.99-2.196-.99-.528 0-.954.108-1.278.324-.312.216-.468.51-.468.882 0 .18.042.348.126.504.084.156.18.288.288.396.108.096.276.21.504.342.228.12.408.21.54.27.132.048.348.132.648.252.36.144.642.264.846.36.204.084.456.222.756.414.312.18.546.366.702.558.168.18.312.42.432.72.132.288.198.612.198.972 0 .768-.282 1.38-.846 1.836-.552.456-1.302.684-2.25.684z" fill="#2C3437"/><circle cx="13.5" cy="13.5" r="13.5" fill="#FFEB6F"/><g filter="url(#filter0_i)"><path d="M13.5 26.208c7.019 0 12.708-5.69 12.708-12.707C26.208 6.483 20.518.794 13.5.794 6.483.794.794 6.484.794 13.501c0 7.018 5.69 12.707 12.707 12.707z" fill="url(#paint0_linear)"/><path d="M13.5 26.208c7.019 0 12.708-5.69 12.708-12.707C26.208 6.483 20.518.794 13.5.794 6.483.794.794 6.484.794 13.501c0 7.018 5.69 12.707 12.707 12.707z" fill="url(#paint1_linear)" fill-opacity=".2" style="mix-blend-mode:soft-light"/></g><path opacity=".4" d="M23.492 21.346a7.851 7.851 0 010-15.69 12.647 12.647 0 012.716 7.845c0 2.96-1.018 5.684-2.716 7.845z" fill="#FFEB6F"/><path opacity=".2" d="M11.09 13.5c0-5.184 3.106-9.64 7.557-11.615 1.909.847 3.568 2.15 4.843 3.771a7.851 7.851 0 000 15.69 12.74 12.74 0 01-4.843 3.77c-4.451-1.976-7.558-6.432-7.558-11.615z" fill="#FFEB6F"/><path opacity=".2" d="M15.91 13.5c0-5.184-3.106-9.64-7.557-11.615A12.738 12.738 0 003.51 5.656a7.851 7.851 0 010 15.69 12.74 12.74 0 004.843 3.77c4.451-1.976 7.558-6.432 7.558-11.615z" fill="#FFEB6F"/><path opacity=".4" d="M3.51 21.346a7.851 7.851 0 000-15.692 12.648 12.648 0 00-2.716 7.847c0 2.963 1.016 5.684 2.716 7.845z" fill="#FFEB6F"/><defs><linearGradient id="paint0_linear" x1="13.501" y1=".794" x2="13.501" y2="26.208" gradientUnits="userSpaceOnUse"><stop stop-color="#FFFEEB"/><stop offset="1" stop-color="#FD1"/></linearGradient><linearGradient id="paint1_linear" x1="13.501" y1=".794" x2="13.501" y2="26.208" gradientUnits="userSpaceOnUse"><stop offset=".328" stop-color="#fff"/><stop offset="1" stop-opacity=".1"/></linearGradient><filter id="filter0_i" x=".794" y=".794" width="25.758" height="25.758" filterUnits="userSpaceOnUse" color-interpolation-filters="sRGB"><feFlood flood-opacity="0" result="BackgroundImageFix"/><feBlend in="SourceGraphic" in2="BackgroundImageFix" result="shape"/><feColorMatrix in="SourceAlpha" values="0 0 0 0 0 0 0 0 0 0 0 0 0 0 0 0 0 0 127 0" result="hardAlpha"/><feOffset dx=".344" dy=".344"/><feGaussianBlur stdDeviation=".172"/><feComposite in2="hardAlpha" operator="arithmetic" k2="-1" k3="1"/><feColorMatrix values="0 0 0 0 1 0 0 0 0 1 0 0 0 0 1 0 0 0 0.2 0"/><feBlend in2="shape" result="effect1_innerShadow"/></filter></defs></svg>
